X: 93
T: Plog-Anders G\aangl\aat
C: efter Plog Anders Hansson, \"Ostersund, Sverige
R: march
Z: 2017 John Chambers <jc:trillian.mit.edu>
%O: handwritten MS of unknown origin.
M: 2/4
L: 1/16
K: D
"A"[|] uA,2 |\
"D"D4 F2DF | (AB)(AG) (FA)(df) | a2a2 Tf2(ed) | "A7"(d2c2) c4 |\
E2A2 A2(Ac) | (ef)(ed) (cd)(ef) | g2(Tge) (cd)(ec) | "D"d2A2 F2D2 |
"D"D4 F2DF | (AB)(AG) (FA)(df) | a2a2 Tf2(ed) | "A7"(d2c2) c4 |\
E2A2 A2(Ac) | (ef)(ed) (cd)(ef) | g2(Tge) (cd)(ec) | "D"[d4F4] z2 :|
"B"|: [A2D2] |\
"D"(AB)(AF) (DF)(Ad) | f2(gf) d2F2 | "G"(GF)(GA) B2G2 | "(Em)"[E4G,4] z2e2 |\
"A7"(ef)(ed) (cd)(ef) | g2e2 c2A2 | "D"d2e2 f2d2 | (AB)(AG) "(A7)"F2G2 |
"D"(AB)(AF) (DF)(Ad) | f2(gf) d2F2 | "G"(GF)(GA) B2G2 | "(Em)"[E4G,4] z2e2 |\
"A7"(ef)(ed) (cd)(ef) | g2e2 c2A2 | "D"d2d2 "A7"(cd)(ec) | "D"[d4F4] z2 :|
